X: 38101
T: Spoils Of Victory, The
R: hornpipe
M: 4/4
K: Gmajor
|:BA|GABc dedB|cdef gedc|BGBd gdBG|AGFE DcBA|
GABc dedB|cdef gedc|BGBd cAFA|G2 GF G2:|
|:AG|FGAB cdef|(3gag fg efde|(3cdc Bc ABGA|(3FGF EF DcBA|
GABc dedB|cdef gedc|BGBd cAFA|G2 GF G2:|

